icons/square/48/devpod.svg

<?xml version="1.0" encoding="UTF-8" standalone="no"?>
<svg
   version="1.1"
   viewBox="0 0 48 48"
   id="svg3274"
   sodipodi:docname="devpod.svg"
   inkscape:version="1.2.2 (b0a8486541, 2022-12-01)"
   xmlns:inkscape="http://www.inkscape.org/namespaces/inkscape"
   xmlns:sodipodi="http://sodipodi.sourceforge.net/DTD/sodipodi-0.dtd"
   xmlns="http://www.w3.org/2000/svg"
   xmlns:svg="http://www.w3.org/2000/svg">
  <sodipodi:namedview
     id="namedview3276"
     pagecolor="#ffffff"
     bordercolor="#000000"
     borderopacity="0.25"
     inkscape:showpageshadow="2"
     inkscape:pageopacity="0.0"
     inkscape:pagecheckerboard="0"
     inkscape:deskcolor="#d1d1d1"
     showgrid="false"
     inkscape:zoom="1"
     inkscape:cx="23.5"
     inkscape:cy="24.5"
     inkscape:window-width="1920"
     inkscape:window-height="1046"
     inkscape:window-x="0"
     inkscape:window-y="0"
     inkscape:window-maximized="1"
     inkscape:current-layer="svg3274" />
  <defs
     id="defs3258">
    <linearGradient
       id="bg"
       x2="0"
       y1="1"
       y2="47"
       gradientUnits="userSpaceOnUse">
      <stop
         style="stop-color:#dcc4e4;stop-opacity:1;"
         offset="0"
         id="stop3253" />
      <stop
         style="stop-color:#d5b7de;stop-opacity:1;"
         offset="1"
         id="stop3255" />
    </linearGradient>
  </defs>
  <path
     d="m1 43v0.25c0 2.216 1.784 4 4 4h38c2.216 0 4-1.784 4-4v-0.25c0 2.216-1.784 4-4 4h-38c-2.216 0-4-1.784-4-4zm0 0.5v0.5c0 2.216 1.784 4 4 4h38c2.216 0 4-1.784 4-4v-0.5c0 2.216-1.784 4-4 4h-38c-2.216 0-4-1.784-4-4z"
     style="opacity:.02"
     id="path3260" />
  <path
     d="m1 43.25v0.25c0 2.216 1.784 4 4 4h38c2.216 0 4-1.784 4-4v-0.25c0 2.216-1.784 4-4 4h-38c-2.216 0-4-1.784-4-4z"
     style="opacity:.05"
     id="path3262" />
  <path
     d="m1 43v0.25c0 2.216 1.784 4 4 4h38c2.216 0 4-1.784 4-4v-0.25c0 2.216-1.784 4-4 4h-38c-2.216 0-4-1.784-4-4z"
     style="opacity:.1"
     id="path3264" />
  <rect
     x="1"
     y="1"
     width="46"
     height="46"
     rx="4"
     style="fill:url(#bg)"
     id="rect3266" />
  <path
     d="m1 39v4c0 2.216 1.784 4 4 4h38c2.216 0 4-1.784 4-4v-4c0 2.216-1.784 4-4 4h-38c-2.216 0-4-1.784-4-4z"
     style="opacity:.1"
     id="path3268" />
  <path
     id="path4338"
     d="M 26.5,11 18,27 16.5,24 19.626953,18 H 16.222656 L 13,24 16.5,30 H 20 L 30,11 Z M 28,18 18,37 h 3.5 l 8.5,-16 1.5,3 -3.126953,6 h 3.404297 L 35,24 31.5,18 Z"
     style="opacity:0.1" />
  <path
     id="path1538"
     d="M 26.5,10 18,26 16.5,23 19.626953,17 H 16.222656 L 13,23 16.5,29 H 20 L 30,10 Z M 28,17 18,36 h 3.5 l 8.5,-16 1.5,3 -3.126953,6 h 3.404297 L 35,23 31.5,17 Z"
     style="fill:#a256d2;fill-opacity:1" />
</svg>

<svg version="1.1" viewBox="0 0 48 48" xmlns="http://www.w3.org/2000/svg">
 <defs>
  <linearGradient id="bg" x2="0" y1="1" y2="47" gradientUnits="userSpaceOnUse">
   <stop style="stop-color:#dcc4e4" offset="0"/>
   <stop style="stop-color:#d5b7de" offset="1"/>
  </linearGradient>
 </defs>
 <path d="m1 43v0.25c0 2.22 1.78 4 4 4h38c2.22 0 4-1.78 4-4v-0.25c0 2.22-1.78 4-4 4h-38c-2.22 0-4-1.78-4-4zm0 0.5v0.5c0 2.22 1.78 4 4 4h38c2.22 0 4-1.78 4-4v-0.5c0 2.22-1.78 4-4 4h-38c-2.22 0-4-1.78-4-4z" style="opacity:.02"/>
 <path d="m1 43.2v0.25c0 2.22 1.78 4 4 4h38c2.22 0 4-1.78 4-4v-0.25c0 2.22-1.78 4-4 4h-38c-2.22 0-4-1.78-4-4z" style="opacity:.05"/>
 <path d="m1 43v0.25c0 2.22 1.78 4 4 4h38c2.22 0 4-1.78 4-4v-0.25c0 2.22-1.78 4-4 4h-38c-2.22 0-4-1.78-4-4z" style="opacity:.1"/>
 <rect x="1" y="1" width="46" height="46" rx="4" style="fill:url(#bg)"/>
 <path d="m1 39v4c0 2.22 1.78 4 4 4h38c2.22 0 4-1.78 4-4v-4c0 2.22-1.78 4-4 4h-38c-2.22 0-4-1.78-4-4z" style="opacity:.1"/>
 <path d="m26.5 11-8.5 16-1.5-3 3.13-6h-3.4l-3.22 6 3.5 6h3.5l10-19zm1.5 7-10 19h3.5l8.5-16 1.5 3-3.13 6h3.4l3.22-6-3.5-6z" style="opacity:.1"/>
 <path d="m26.5 10-8.5 16-1.5-3 3.13-6h-3.4l-3.22 6 3.5 6h3.5l10-19zm1.5 7-10 19h3.5l8.5-16 1.5 3-3.13 6h3.4l3.22-6-3.5-6z" style="fill:#a256d2"/>
</svg>
